X: 24140
T: Looby Light
R: slip jig
M: 9/8
K: Dmajor
|:DED A2 F A2 F|DED A2 F E2 F|
DED A2 F A2 F|BdB A2 F D3:|
|:ded d2 B A3|ded d2 F E3|
ded d2 B A2 F|BdB A2 F D3:|

